X:285
T:Air By Mr. Arne,(Harmony). BC.51b
M:C
L:1/4
Q:25
C:Thomas Arne
S:Benjamin Cooke MS.circa 1770, F.Kidson Coll.
R:Air
O:England
A:x
Z:John Bagnall
K:D
d d d d | A A A A | d A B G | A A D2|!|
d d B B | A e c/A/B/c/ | d e f F | E D A2 |!
 L:1/16
Q:100
 (f/e/d3) d2d2 d4 f4 |
 (e/d/c3) c2c2 c8|
 L:1/4
Q:100
 d A B G | A A D2 :|]
